X:1
T:Theodoret, 87.87 D
T:Jeremiah Franklin Ohl, 1887
T:Theodoret, 87.87 D
T:Public Domain
C:Jeremiah Franklin Ohl, 1887
Z:Public Domain
%%score ( 1 2 ) ( 3 4 )
L:1/8
M:4/4
K:G
V:1 treble 
V:2 treble 
V:3 bass 
V:4 bass 
V:1
 D2 [^CE]2 [=CF]3 [CE] | [CD]2 [CA]2 [B,G]2 [B,D]2 | [DB]2 [DB]2 [DA]2 [Dd]2 | [DG]2 [^CA]2 [DF]4 | %4
 [^DF]2 [DF]2 [DB]3 [DF] | [EG]2 (ED) [^CB]2 [CA]2 | [DA]2 [^CA]2 [Dd]2 [DF]2 | [^CF]2 [CE]2 D4 | %8
 D2 [CE]2 [CE]2 [CF]2 | [B,G]2 [EA]2 [^DB]2 [DF]2 | [EG]2 [=FG]2 [EA]2 [EA]2 | [EB]2 [Ec]2 [FA]4 | %12
 [Fe]3 [Fe] [Gd]2 [GB]2 | [FA]2 [FB]2 [EG]2 [E^G]2 | [EA]2 [EB]2 [Ec]2 [CE]2 | %15
 [CF]3 [B,G] [B,G]4 |] %16
V:2
 D2 x6 | x8 | x8 | x8 | x8 | x2 B2 x4 | x8 | x4 D4 | D2 x6 | x8 | x8 | x8 | x8 | x8 | x8 | x8 |] %16
V:3
 [D,F,]2 [D,G,]2 [D,A,]3 [D,G,] | [D,F,]2 [D,F,]2 [G,,G,]2 [G,,G,]2 | G,2 G,2 [F,A,]2 [F,A,]2 | %3
 [E,B,]2 [A,,A,]2 [D,A,]4 | [B,,B,]2 [B,,B,]2 [B,,F,]3 [B,,B,] | %5
 [E,B,]2 [E,G,]2 [A,,G,]2 [A,,G,]2 | [D,F,]2 [E,G,]2 [F,A,]2 [B,,^G,]2 | %7
 [A,,A,]2 [A,,G,]2 [D,F,]4 | [D,F,]2 [D,G,]2 [D,G,]2 [D,A,]2 | [E,G,]2 [C,E,]2 [B,,F,]2 [B,,B,]2 | %10
 [E,B,]2 [D,B,]2 [C,C]2 [C,A,]2 | [B,,^G,]2 [A,,A,]2 [D,A,]4 | [D,C]3 [D,C] [D,B,]2 [D,D]2 | %13
 [D,C]2 [^D,B,]2 [E,B,]2 [=D,B,]2 | [C,C]2 [B,,^G,]2 [A,,A,]2 [A,,A,]2 | %15
 [D,A,]3 [G,,G,] [G,,G,]4 |] %16
V:4
 x8 | x8 | G,2 G,2 x4 | x8 | x8 | x8 | x8 | x8 | x8 | x8 | x8 | x8 | x8 | x8 | x8 | x8 |] %16

